; generated by PrusaSlicer 2.3.0+win64 on 2022-09-23 at 16:51:48 UTC

; 

; external perimeters extrusion width = 0.45mm
; perimeters extrusion width = 0.45mm
; infill extrusion width = 0.45mm
; solid infill extrusion width = 0.45mm
; top infill extrusion width = 0.40mm
; first layer extrusion width = 0.42mm

M73 P0 R22
M73 Q0 S22
M201 X1000 Y1000 Z200 E5000 ; sets maximum accelerations, mm/sec^2
M203 X200 Y200 Z12 E120 ; sets maximum feedrates, mm/sec
M204 P1250 R1250 T1250 ; sets acceleration (P, T) and retract acceleration (R), mm/sec^2
M205 X8.00 Y8.00 Z0.40 E4.50 ; sets the jerk limits, mm/sec
M205 S0 T0 ; sets the minimum extruding and travel feed rate, mm/sec
M107
;TYPE:Custom
M862.3 P "MK3" ; printer model check
M862.1 P0.4 ; nozzle diameter check
M115 U3.9.2 ; tell printer latest fw version
G90 ; use absolute coordinates
M83 ; extruder relative mode
M104 S215 ; set extruder temp
M140 S60 ; set bed temp
M190 S60 ; wait for bed temp
M109 S215 ; wait for extruder temp
G28 W ; home all without mesh bed level
G80 ; mesh bed leveling
G1 Y-3.0 F1000.0 ; go outside print area
G92 E0.0
G1 X60.0 E9.0 F1000.0 ; intro line
G1 X100.0 E12.5 F1000.0 ; intro line
G92 E0.0
M221 S95

; Don't change E values below. Excessive value can damage the printer.

M907 E538 ; set extruder motor current
G21 ; set units to millimeters
G90 ; use absolute coordinates
M83 ; use relative distances for extrusion
M900 K0.05 ; Filament gcode LA 1.5
M900 K30 ; Filament gcode LA 1.0
;LAYER_CHANGE
;Z:0.2
;HEIGHT:0.2
;BEFORE_LAYER_CHANGE
G92 E0.0
;0.2


M73 P0 R21
G1 E-0.80000 F2100.000
G1 Z0.400 F10800.000
;AFTER_LAYER_CHANGE
;0.2
G1 X82.348 Y82.369
M73 Q0 S21
G1 Z0.200
G1 E0.80000 F2100.000
M204 S1000
;TYPE:Skirt
;WIDTH:0.42
G1 F1200.000
G1 X83.229 Y81.573 E0.03721
G1 X84.201 Y80.880 E0.03744
G1 X85.635 Y80.114 E0.05097
G1 X86.739 Y79.692 E0.03706
G1 X88.009 Y79.374 E0.04104
G1 X89.312 Y79.210 E0.04119
G1 X90.498 Y79.203 E0.03718
G1 X92.119 Y79.401 E0.05121
G1 X93.286 Y79.700 E0.03775
G1 X94.491 Y80.166 E0.04053
G1 X95.825 Y80.897 E0.04770
G1 X96.785 Y81.584 E0.03701
G1 X97.755 Y82.470 E0.04119
G1 X98.611 Y83.467 E0.04120
G1 X99.267 Y84.446 E0.03695
G1 X99.955 Y85.794 E0.04745
G1 X100.387 Y87.021 E0.04078
G1 X100.649 Y88.188 E0.03750
G1 X100.799 Y89.818 E0.05133
G1 X100.757 Y91.004 E0.03721
G1 X100.554 Y92.302 E0.04120
G1 X100.196 Y93.566 E0.04120
G1 X99.742 Y94.654 E0.03696
G1 X98.932 Y96.067 E0.05105
G1 X98.206 Y97.021 E0.03760
G1 X97.384 Y97.876 E0.03719
G1 X96.121 Y98.892 E0.05082
G1 X95.102 Y99.515 E0.03745
G1 X93.912 Y100.063 E0.04109
G1 X92.653 Y100.466 E0.04145
G1 X91.487 Y100.690 E0.03721
G1 X89.928 Y100.796 E0.04901
G1 X88.678 Y100.715 E0.03927
G1 X87.498 Y100.500 E0.03760
G1 X85.956 Y100.007 E0.05078
G1 X84.881 Y99.507 E0.03716
G1 X83.761 Y98.813 E0.04132
G1 X82.735 Y97.989 E0.04127
G1 X81.904 Y97.141 E0.03721
G1 X80.918 Y95.840 E0.05118
G1 X80.326 Y94.803 E0.03745
G1 X79.820 Y93.610 E0.04063
G1 X79.415 Y92.140 E0.04780
G1 X79.241 Y90.979 E0.03680
G1 X79.201 Y89.669 E0.04109
G1 X79.321 Y88.353 E0.04145
G1 X79.567 Y87.200 E0.03696
G1 X80.056 Y85.768 E0.04744
G1 X80.636 Y84.602 E0.04083
G1 X81.289 Y83.607 E0.03732
G1 X82.309 Y82.415 E0.04920
G1 X82.594 Y82.658 F10800.000
G1 F1200.000
G1 X83.462 Y81.870 E0.03677
G1 X84.410 Y81.193 E0.03652
G1 X85.771 Y80.465 E0.04840
G1 X86.852 Y80.052 E0.03629
G1 X88.078 Y79.744 E0.03962
G1 X89.340 Y79.586 E0.03989
G1 X90.498 Y79.581 E0.03630
G1 X92.032 Y79.768 E0.04847
G1 X93.170 Y80.059 E0.03682
G1 X94.338 Y80.511 E0.03926
G1 X95.607 Y81.205 E0.04536
G1 X96.548 Y81.877 E0.03624
G1 X97.485 Y82.733 E0.03978
G1 X98.313 Y83.698 E0.03990
G1 X98.953 Y84.654 E0.03607
G1 X99.607 Y85.940 E0.04522
G1 X100.026 Y87.129 E0.03952
G1 X100.280 Y88.263 E0.03645
G1 X100.422 Y89.807 E0.04861
G1 X100.381 Y90.968 E0.03643
G1 X100.186 Y92.221 E0.03978
G1 X99.839 Y93.445 E0.03990
G1 X99.395 Y94.507 E0.03608
G1 X98.628 Y95.844 E0.04834
G1 X97.919 Y96.775 E0.03667
G1 X97.117 Y97.609 E0.03628
G1 X95.918 Y98.574 E0.04825
G1 X94.928 Y99.181 E0.03640
G1 X93.775 Y99.712 E0.03981
G1 X92.556 Y100.101 E0.04013
G1 X91.419 Y100.319 E0.03631
G1 X89.937 Y100.419 E0.04656
G1 X88.724 Y100.341 E0.03810
G1 X87.577 Y100.132 E0.03655
G1 X86.110 Y99.663 E0.04831
M73 Q1 S21
G1 X85.061 Y99.175 E0.03627
G1 X83.979 Y98.505 E0.03989
G1 X82.985 Y97.707 E0.03997
G1 X82.175 Y96.879 E0.03631
M73 P1 R21
G1 X81.242 Y95.647 E0.04846
G1 X80.664 Y94.636 E0.03652
G1 X80.174 Y93.480 E0.03937
G1 X79.788 Y92.082 E0.04545
G1 X79.617 Y90.950 E0.03592
G1 X79.578 Y89.680 E0.03981
G1 X79.694 Y88.406 E0.04013
G1 X79.935 Y87.281 E0.03608
G1 X80.401 Y85.920 E0.04509
G1 X80.963 Y84.790 E0.03957
G1 X81.600 Y83.820 E0.03640
G1 X82.555 Y82.704 E0.04603
; printing object 20.5mmSpacer.stl id:0 copy 0
;WIPE_START
G1 F8640.000
G1 X83.462 Y81.870 E-0.28453
G1 X84.410 Y81.193 E-0.26894
G1 X85.199 Y80.772 E-0.20653
;WIPE_END
G1 E-0.04000 F2100.000
G1 Z0.600 F10800.000
G1 X85.221 Y85.104
G1 Z0.200
G1 E0.80000 F2100.000
;TYPE:Perimeter
G1 F1200.000
G1 X85.980 Y84.459 E0.03124
G1 X86.789 Y83.954 E0.02992
G1 X87.661 Y83.566 E0.02992
G1 X88.578 Y83.303 E0.02992
G1 X89.523 Y83.170 E0.02992
G1 X90.477 Y83.170 E0.02992
G1 X91.422 Y83.303 E0.02992
G1 X92.339 Y83.566 E0.02992
G1 X93.211 Y83.954 E0.02992
G1 X94.020 Y84.459 E0.02992
G1 X94.751 Y85.073 E0.02992
G1 X95.389 Y85.782 E0.02992
G1 X95.923 Y86.573 E0.02992
G1 X96.341 Y87.430 E0.02992
G1 X96.636 Y88.338 E0.02992
G1 X96.802 Y89.277 E0.02992
G1 X96.835 Y90.231 E0.02992
G1 X96.735 Y91.180 E0.02992
G1 X96.504 Y92.106 E0.02992
G1 X96.147 Y92.990 E0.02992
G1 X95.670 Y93.817 E0.02992
G1 X95.082 Y94.569 E0.02992
G1 X94.396 Y95.231 E0.02992
G1 X93.624 Y95.792 E0.02992
G1 X92.798 Y96.231 E0.02932
G1 X91.886 Y96.566 E0.03048
G1 X90.952 Y96.765 E0.02994
G1 X90.000 Y96.831 E0.02992
G1 X89.048 Y96.765 E0.02992
G1 X88.115 Y96.566 E0.02992
G1 X87.218 Y96.240 E0.02992
G1 X86.376 Y95.792 E0.02992
G1 X85.604 Y95.231 E0.02992
G1 X84.918 Y94.569 E0.02992
G1 X84.330 Y93.817 E0.02992
G1 X83.853 Y92.990 E0.02992
G1 X83.496 Y92.106 E0.02992
G1 X83.265 Y91.180 E0.02992
G1 X83.165 Y90.231 E0.02992
G1 X83.198 Y89.296 E0.02932
G1 X83.364 Y88.339 E0.03048
G1 X83.659 Y87.430 E0.02994
G1 X84.077 Y86.573 E0.02992
G1 X84.611 Y85.782 E0.02992
G1 X85.181 Y85.149 E0.02670
G1 X85.461 Y85.401 F10800.000
;TYPE:External perimeter
G1 F1200.000
G1 X86.202 Y84.765 E0.03063
G1 X86.967 Y84.288 E0.02826
G1 X87.790 Y83.921 E0.02826
G1 X88.657 Y83.673 E0.02826
G1 X89.549 Y83.547 E0.02826
G1 X90.451 Y83.547 E0.02826
G1 X91.343 Y83.673 E0.02826
G1 X92.210 Y83.921 E0.02826
G1 X93.033 Y84.288 E0.02826
G1 X93.798 Y84.765 E0.02826
G1 X94.488 Y85.345 E0.02826
G1 X95.091 Y86.015 E0.02826
G1 X95.595 Y86.762 E0.02826
G1 X95.991 Y87.572 E0.02826
G1 X96.269 Y88.429 E0.02826
G1 X96.426 Y89.317 E0.02826
G1 X96.457 Y90.218 E0.02826
G1 X96.363 Y91.114 E0.02826
G1 X96.145 Y91.989 E0.02826
G1 X95.807 Y92.825 E0.02826
G1 X95.356 Y93.605 E0.02826
G1 X94.801 Y94.316 E0.02826
G1 X94.153 Y94.942 E0.02826
G1 X93.424 Y95.472 E0.02826
G1 X92.644 Y95.886 E0.02769
G1 X91.781 Y96.203 E0.02882
G1 X90.899 Y96.390 E0.02827
G1 X90.000 Y96.453 E0.02826
G1 X89.101 Y96.390 E0.02826
G1 X88.219 Y96.203 E0.02826
G1 X87.372 Y95.895 E0.02826
G1 X86.576 Y95.472 E0.02826
G1 X85.847 Y94.942 E0.02826
G1 X85.199 Y94.316 E0.02826
G1 X84.644 Y93.605 E0.02826
G1 X84.193 Y92.825 E0.02826
G1 X83.855 Y91.989 E0.02826
G1 X83.637 Y91.114 E0.02826
G1 X83.543 Y90.218 E0.02826
G1 X83.574 Y89.335 E0.02769
G1 X83.731 Y88.430 E0.02882
G1 X84.009 Y87.572 E0.02827
G1 X84.405 Y86.762 E0.02826
G1 X84.909 Y86.015 E0.02826
G1 X85.421 Y85.446 E0.02399
G1 X85.361 Y85.014 F10800.000
G1 X84.880 Y84.853
;TYPE:Perimeter
G1 F1200.000
G1 X85.448 Y84.335 E0.02409
G1 X86.177 Y83.819 E0.02803
G1 X86.965 Y83.396 E0.02803
G1 X87.799 Y83.073 E0.02803
G1 X88.666 Y82.855 E0.02803
G1 X89.553 Y82.745 E0.02803
G1 X90.447 Y82.745 E0.02803
G1 X91.334 Y82.855 E0.02803
G1 X92.201 Y83.073 E0.02803
G1 X93.035 Y83.396 E0.02803
G1 X93.823 Y83.819 E0.02803
G1 X94.552 Y84.335 E0.02803
G1 X95.213 Y84.937 E0.02803
G1 X95.795 Y85.616 E0.02803
G1 X96.289 Y86.362 E0.02803
G1 X96.687 Y87.162 E0.02803
G1 X96.984 Y88.005 E0.02803
G1 X97.175 Y88.879 E0.02803
G1 X97.258 Y89.769 E0.02803
G1 X97.230 Y90.662 E0.02803
G1 X97.093 Y91.546 E0.02803
G1 X96.849 Y92.406 E0.02803
G1 X96.500 Y93.229 E0.02803
G1 X96.053 Y94.003 E0.02803
G1 X95.514 Y94.717 E0.02803
G1 X94.892 Y95.359 E0.02803
G1 X94.195 Y95.919 E0.02803
G1 X93.435 Y96.390 E0.02803
G1 X92.623 Y96.763 E0.02803
G1 X91.771 Y97.034 E0.02803
G1 X90.892 Y97.199 E0.02803
G1 X90.000 Y97.254 E0.02803
G1 X89.108 Y97.199 E0.02803
G1 X88.229 Y97.034 E0.02803
G1 X87.377 Y96.763 E0.02803
G1 X86.565 Y96.390 E0.02803
G1 X85.805 Y95.919 E0.02803
G1 X85.108 Y95.359 E0.02803
G1 X84.486 Y94.717 E0.02803
G1 X83.947 Y94.003 E0.02803
G1 X83.500 Y93.229 E0.02803
G1 X83.151 Y92.406 E0.02803
G1 X82.907 Y91.546 E0.02803
G1 X82.770 Y90.662 E0.02803
G1 X82.742 Y89.769 E0.02803
G1 X82.825 Y88.879 E0.02803
G1 X83.016 Y88.005 E0.02803
G1 X83.313 Y87.162 E0.02803
G1 X83.711 Y86.362 E0.02803
G1 X84.205 Y85.616 E0.02803
G1 X84.836 Y84.893 E0.03008
G1 X84.582 Y84.614 F10800.000
;TYPE:External perimeter
G1 F1200.000
G1 X85.211 Y84.041 E0.02670
G1 X85.978 Y83.497 E0.02949
G1 X86.807 Y83.052 E0.02949
G1 X87.684 Y82.713 E0.02949
G1 X88.596 Y82.483 E0.02949
G1 X89.530 Y82.368 E0.02949
G1 X90.470 Y82.368 E0.02949
G1 X91.404 Y82.483 E0.02949
G1 X92.316 Y82.713 E0.02949
G1 X93.193 Y83.052 E0.02949
G1 X94.022 Y83.497 E0.02949
G1 X94.789 Y84.041 E0.02949
G1 X95.484 Y84.674 E0.02949
G1 X96.096 Y85.389 E0.02949
G1 X96.616 Y86.173 E0.02949
G1 X97.035 Y87.015 E0.02949
G1 X97.348 Y87.902 E0.02949
G1 X97.549 Y88.821 E0.02949
G1 X97.636 Y89.757 E0.02949
G1 X97.607 Y90.697 E0.02949
G1 X97.462 Y91.627 E0.02949
G1 X97.205 Y92.531 E0.02949
G1 X96.838 Y93.397 E0.02949
G1 X96.368 Y94.212 E0.02949
G1 X95.801 Y94.963 E0.02949
G1 X95.147 Y95.638 E0.02949
G1 X94.414 Y96.227 E0.02949
G1 X93.614 Y96.723 E0.02949
G1 X92.760 Y97.116 E0.02949
G1 X91.863 Y97.401 E0.02949
G1 X90.939 Y97.574 E0.02949
G1 X90.000 Y97.632 E0.02949
G1 X89.061 Y97.574 E0.02949
G1 X88.137 Y97.401 E0.02949
G1 X87.240 Y97.116 E0.02949
G1 X86.386 Y96.723 E0.02949
G1 X85.586 Y96.227 E0.02949
G1 X84.853 Y95.638 E0.02949
G1 X84.199 Y94.963 E0.02949
G1 X83.632 Y94.212 E0.02949
G1 X83.162 Y93.397 E0.02949
G1 X82.795 Y92.531 E0.02949
G1 X82.538 Y91.627 E0.02949
G1 X82.393 Y90.697 E0.02949
G1 X82.364 Y89.757 E0.02949
G1 X82.451 Y88.821 E0.02949
G1 X82.652 Y87.902 E0.02949
G1 X82.965 Y87.015 E0.02949
G1 X83.384 Y86.173 E0.02949
G1 X83.904 Y85.389 E0.02949
G1 X84.537 Y84.655 E0.03039
G1 X84.969 Y84.713 F10800.000
G1 X85.006 Y85.025
;TYPE:Gap fill
;WIDTH:0.0997045
G1 F1200.000
G1 X84.755 Y85.302 E0.00177
G1 X84.398 Y85.718 F10800.000
;WIDTH:0.0944837
G1 F1200.000
G1 X84.284 Y85.884 E0.00087
;WIPE_START
G1 F8640.000
G1 X84.398 Y85.718 E-0.04666
;WIPE_END
G1 E-0.75334 F2100.000
G1 Z0.600 F10800.000
G1 X83.584 Y87.097
G1 Z0.200
G1 E0.80000 F2100.000
;WIDTH:0.0944778
G1 F1200.000
G1 X83.497 Y87.278 E0.00086
G1 X83.316 Y87.796 F10800.000
;WIDTH:0.0997001
G1 F1200.000
G1 X83.201 Y88.151 E0.00177
G1 X83.096 Y88.634 F10800.000
;WIDTH:0.104665
G1 F1200.000
G1 X83.020 Y89.079 E0.00232
G1 X82.976 Y89.557 F10800.000
;WIDTH:0.104451
G1 F1200.000
G1 X82.961 Y89.970 E0.00211
G1 X82.977 Y90.473 F10800.000
;WIDTH:0.103975
G1 F1200.000
G1 X83.019 Y90.882 E0.00208
G1 X83.097 Y91.384 F10800.000
;WIDTH:0.101606
G1 F1200.000
G1 X83.191 Y91.767 E0.00192
G1 X83.335 Y92.275 F10800.000
;WIDTH:0.0973285
G1 F1200.000
G1 X83.458 Y92.583 E0.00150
;WIPE_START
G1 F8640.000
G1 X83.335 Y92.275 E-0.07665
;WIPE_END
G1 E-0.72335 F2100.000
G1 Z0.600 F10800.000
G1 X84.486 Y94.363
G1 Z0.200
G1 E0.80000 F2100.000
;WIDTH:0.0973277
G1 F1200.000
G1 X84.691 Y94.623 E0.00150
G1 X85.059 Y95.001 F10800.000
;WIDTH:0.101603
G1 F1200.000
G1 X85.343 Y95.275 E0.00192
G1 X85.740 Y95.593 F10800.000
;WIDTH:0.103976
G1 F1200.000
G1 X86.072 Y95.834 E0.00208
G1 X86.500 Y96.099 F10800.000
;WIDTH:0.104452
G1 F1200.000
G1 X86.865 Y96.293 E0.00211
G1 X87.323 Y96.505 F10800.000
;WIDTH:0.103027
G1 F1200.000
G1 X87.704 Y96.644 E0.00202
G1 X88.195 Y96.801 F10800.000
;WIDTH:0.0997046
G1 F1200.000
G1 X88.561 Y96.879 E0.00177
G1 X89.099 Y96.981 F10800.000
;WIDTH:0.0944796
G1 F1200.000
G1 X89.300 Y96.997 E0.00086
;WIPE_START
G1 F8640.000
G1 X89.099 Y96.981 E-0.04656
;WIPE_END
G1 E-0.75344 F2100.000
G1 Z0.600 F10800.000
G1 X90.700 Y96.997
G1 Z0.200
G1 E0.80000 F2100.000
;WIDTH:0.0944806
G1 F1200.000
G1 X90.901 Y96.981 E0.00086
G1 X91.439 Y96.879 F10800.000
;WIDTH:0.0997062
G1 F1200.000
G1 X91.805 Y96.801 E0.00177
G1 X92.275 Y96.650 F10800.000
;WIDTH:0.104663
G1 F1200.000
G1 X92.699 Y96.494 E0.00232
G1 X93.135 Y96.293 F10800.000
;WIDTH:0.104449
G1 F1200.000
G1 X93.500 Y96.099 E0.00211
G1 X93.928 Y95.834 F10800.000
;WIDTH:0.103976
G1 F1200.000
G1 X94.260 Y95.593 E0.00208
G1 X94.657 Y95.275 F10800.000
;WIDTH:0.101601
G1 F1200.000
G1 X94.941 Y95.001 E0.00192
G1 X95.309 Y94.623 F10800.000
;WIDTH:0.0973304
G1 F1200.000
G1 X95.514 Y94.363 E0.00150
;WIPE_START
G1 F8640.000
G1 X95.309 Y94.623 E-0.07666
;WIPE_END
G1 E-0.72334 F2100.000
G1 Z0.600 F10800.000
G1 X96.542 Y92.583
G1 Z0.200
G1 E0.80000 F2100.000
;WIDTH:0.0973279
G1 F1200.000
G1 X96.665 Y92.275 E0.00150
G1 X96.809 Y91.767 F10800.000
;WIDTH:0.101603
G1 F1200.000
G1 X96.903 Y91.385 E0.00192
G1 X96.981 Y90.882 F10800.000
;WIDTH:0.103972
M73 Q2 S21
G1 F1200.000
G1 X97.023 Y90.473 E0.00208
G1 X97.039 Y89.970 F10800.000
;WIDTH:0.104447
G1 F1200.000
G1 X97.024 Y89.557 E0.00211
G1 X96.978 Y89.054 F10800.000
;WIDTH:0.103029
G1 F1200.000
G1 X96.908 Y88.656 E0.00202
G1 X96.799 Y88.151 F10800.000
;WIDTH:0.0997021
G1 F1200.000
G1 X96.684 Y87.795 E0.00177
G1 X96.503 Y87.278 F10800.000
;WIDTH:0.0944778
G1 F1200.000
G1 X96.416 Y87.097 E0.00086
;WIPE_START
G1 F8640.000
G1 X96.503 Y87.278 E-0.04647
;WIPE_END
G1 E-0.75353 F2100.000
M73 P2 R21
G1 Z0.600 F10800.000
G1 X95.716 Y85.884
G1 Z0.200
G1 E0.80000 F2100.000
;WIDTH:0.0944766
G1 F1200.000
G1 X95.602 Y85.718 E0.00086
G1 X95.245 Y85.302 F10800.000
;WIDTH:0.0997046
G1 F1200.000
G1 X94.994 Y85.025 E0.00177
G1 X94.612 Y84.678 F10800.000
;WIDTH:0.103029
G1 F1200.000
G1 X94.301 Y84.418 E0.00202
G1 X93.889 Y84.127 F10800.000
;WIDTH:0.104449
G1 F1200.000
G1 X93.539 Y83.908 E0.00211
G1 X93.095 Y83.670 F10800.000
;WIDTH:0.103975
G1 F1200.000
G1 X92.720 Y83.502 E0.00208
G1 X92.246 Y83.318 F10800.000
;WIDTH:0.101599
G1 F1200.000
G1 X91.867 Y83.209 E0.00192
G1 X91.356 Y83.079 F10800.000
;WIDTH:0.097329
G1 F1200.000
G1 X91.028 Y83.032 E0.00150
;WIPE_START
G1 F8640.000
G1 X91.356 Y83.079 E-0.07664
;WIPE_END
G1 E-0.72336 F2100.000
G1 Z0.600 F10800.000
G1 X88.972 Y83.032
G1 Z0.200
G1 E0.80000 F2100.000
;WIDTH:0.0973291
G1 F1200.000
G1 X88.644 Y83.079 E0.00150
G1 X88.133 Y83.209 F10800.000
;WIDTH:0.101599
G1 F1200.000
G1 X87.754 Y83.318 E0.00192
G1 X87.280 Y83.502 F10800.000
;WIDTH:0.103975
G1 F1200.000
G1 X86.905 Y83.670 E0.00208
G1 X86.461 Y83.908 F10800.000
;WIDTH:0.104452
G1 F1200.000
G1 X86.111 Y84.127 E0.00211
G1 X85.699 Y84.418 F10800.000
;WIDTH:0.103028
G1 F1200.000
G1 X85.388 Y84.678 E0.00202
; stop printing object 20.5mmSpacer.stl id:0 copy 0
M106 S84.15
;LAYER_CHANGE
;Z:0.45
;HEIGHT:0.25
;BEFORE_LAYER_CHANGE
G92 E0.0
;0.45


;WIPE_START
G1 F8640.000
G1 X85.699 Y84.418 E-0.09348
;WIPE_END
G1 E-0.70652 F2100.000
G1 Z0.600 F10800.000
;AFTER_LAYER_CHANGE
;0.45
M104 S210 ; set temperature
G1 X84.201 Y80.880
G1 Z0.450
G1 E0.80000 F2100.000
;TYPE:Skirt
;WIDTH:0.42
G1 F1451
G1 X85.635 Y80.114 E0.06190
G1 X86.739 Y79.692 E0.04501
G1 X88.009 Y79.374 E0.04984
G1 X89.312 Y79.210 E0.05003
G1 X90.498 Y79.203 E0.04515
G1 X92.119 Y79.401 E0.06219
G1 X93.286 Y79.700 E0.04585
G1 X94.491 Y80.166 E0.04922
G1 X95.825 Y80.897 E0.05793
G1 X96.785 Y81.584 E0.04494
G1 X97.755 Y82.470 E0.05003
G1 X98.611 Y83.467 E0.05003
G1 X99.267 Y84.446 E0.04488
G1 X99.955 Y85.794 E0.05762
G1 X100.387 Y87.021 E0.04952
G1 X100.649 Y88.188 E0.04554
G1 X100.799 Y89.818 E0.06234
G1 X100.757 Y91.004 E0.04519
G1 X100.554 Y92.302 E0.05003
